hospital-box.svg

<svg fill="currentColor" viewBox="0 0 24 24"><path d="M18 14h-4v4h-4v-4H6v-4h4V6h4v4h4m1-7H5c-1.11 0-2 .89-2 2v14a2 2 0 0 0 2 2h14a2 2 0 0 0 2-2V5a2 2 0 0 0-2-2"/></svg>

<svg  viewBox="0 0 24 24" fill="currentColor"><path  d="M18,14H14V18H10V14H6V10H10V6H14V10H18M19,3H5C3.89,3 3,3.89 3,5V19A2,2 0 0,0 5,21H19A2,2 0 0,0 21,19V5C21,3.89 20.1,3 19,3Z"/></svg>
